icon/lg/emmet.svg

<?xml version="1.0" encoding="UTF-8" standalone="no"?>
<svg viewBox="0 0 256 256" version="1.1" xmlns="http://www.w3.org/2000/svg" xmlns:xlink="http://www.w3.org/1999/xlink" preserveAspectRatio="xMidYMid" height="1em" width="1em">
  <g>
    <circle fill="#1C1C20" cx="127.555396" cy="128.183974" r="127.555396"/>
    <path d="M178.49647,124.737291 L164.290713,110.531533 L171.596531,80.4965036 L141.155622,87.3964429 L127.355743,73.5965643 L195.543379,56.5496553 L178.49647,124.737291 L178.49647,124.737291 Z" fill="#BAFFA9"/>
    <path d="M154.955501,218.901169 L33.1918654,97.1375338 L101.379501,80.0906248 L115.17938,93.8905035 L66.4739257,106.066867 L94.073683,133.666624 L126.138107,125.954927 L118.020531,157.613473 L145.620288,185.21323 L157.796652,136.507776 L172.00241,150.713533 L154.955501,218.901169 L154.955501,218.901169 Z" fill="#7ACB16"/>
  </g>
</svg>

<svg width="256" height="256" xmlns="http://www.w3.org/2000/svg" preserveAspectRatio="xMidYMid"><circle fill="#1C1C20" cx="127.555" cy="128.184" r="127.555"/><path d="m178.496 124.737-14.205-14.205 7.306-30.035-30.441 6.9-13.8-13.8 68.187-17.047-17.047 68.187Z" fill="#BAFFA9"/><path d="M154.956 218.901 33.192 97.138 101.38 80.09l13.8 13.8-48.706 12.176 27.6 27.6 32.064-7.712-8.117 31.658 27.6 27.6 12.176-48.705 14.205 14.206-17.046 68.187Z" fill="#7ACB16"/></svg>
